X: 20
T:The South Wind
M:3/4
L:1/8
R:Waltz
Z:Peter Harris, pharris@cincom.co
K:G
d | B3 A G2 | B3 c d2 | A4 B2 | A4 d2 |
| B3 A G2 | E3 D E2 | G4 G2 |1 G4 :|2 G4 (3def | 
 |] g2 g2 af | g2 fg ef | d2 d2 e^c | d4 c2 |
| B3 A G2 | B3 c d2 | A4 B2| A4 (3def |
| g2 g2 af |  g2 fg ef | d2 d2 e^c | d4 c2 |
| B3 A G2 | A c3 F2| G6 | G6 |]
